img/icon-smile.svg

<svg width="38" height="40" viewBox="0 0 38 40" fill="none" xmlns="http://www.w3.org/2000/svg">
<path d="M19 1.25C9.16275 1.25 1.1875 9.645 1.1875 20C1.1875 30.355 9.16275 38.75 19 38.75C28.8372 38.75 36.8125 30.355 36.8125 20C36.8125 9.645 28.8372 1.25 19 1.25ZM29.9155 31.49C28.4894 32.9906 26.7961 34.1803 24.9325 34.9911C23.069 35.8019 21.0719 36.2178 19.0554 36.215C10.5608 36.215 3.67333 28.9667 3.67333 20.0233C3.67333 11.08 10.5592 3.83167 19.0554 3.83167C27.55 3.83167 34.4375 11.08 34.4375 20.0233C34.4399 22.2258 34.0142 24.4055 33.1867 26.4283L33.2247 26.3233C32.4478 28.2532 31.3241 30.0069 29.9155 31.4883V31.49Z" fill="#15CE3D"/>
<path d="M11.2812 15.625H14.25V18.75H11.2812V15.625Z" fill="#15CE3D"/>
<path d="M23.75 15.625H26.7188V18.75H23.75V15.625Z" fill="#15CE3D"/>
<path d="M25.1069 24C24.6473 25.2157 23.8521 26.2585 22.8239 26.9938C21.7958 27.7291 20.5818 28.1231 19.3388 28.125H18.6612C17.425 28.1249 16.2171 27.7364 15.192 27.0093C14.1669 26.2821 13.3714 25.2493 12.9073 24.0433L12.8931 24L12.7981 23.75H10.2394L10.6875 24.9283C11.9922 28.295 15.0781 30.625 18.6817 30.625H19.3198C21.0303 30.6254 22.7021 30.0895 24.122 29.0856C25.5418 28.0817 26.6454 26.6553 27.2919 24.9883L27.3125 24.9283L27.7606 23.75H25.2019L25.1069 24Z" fill="#15CE3D"/>
</svg>

<svg width="38" height="40" fill="none" xmlns="http://www.w3.org/2000/svg"><path d="M19 1.25C9.163 1.25 1.187 9.645 1.187 20S9.163 38.75 19 38.75 36.813 30.355 36.813 20 28.837 1.25 19 1.25zm10.916 30.24a15.304 15.304 0 01-4.983 3.501 14.668 14.668 0 01-5.878 1.224c-8.494 0-15.382-7.248-15.382-16.192 0-8.943 6.886-16.191 15.382-16.191 8.495 0 15.383 7.248 15.383 16.191a16.881 16.881 0 01-1.251 6.405l.038-.105a16.353 16.353 0 01-3.31 5.165v.002z" fill="#15CE3D"/><path d="M11.281 15.625h2.969v3.125h-2.969v-3.125zM23.75 15.625h2.969v3.125H23.75v-3.125zM25.107 24a6.495 6.495 0 01-2.283 2.994 6.001 6.001 0 01-3.485 1.131h-.678a5.992 5.992 0 01-3.469-1.116 6.48 6.48 0 01-2.285-2.966L12.893 24l-.095-.25H10.24l.448 1.178c1.305 3.367 4.391 5.697 7.995 5.697h.638c1.71 0 3.382-.535 4.802-1.54a8.983 8.983 0 003.17-4.097l.02-.06.449-1.178H25.2l-.094.25z" fill="#15CE3D"/></svg>
